src/lib/packages/icons/src/assets/line/door-closed.svg

<svg xmlns="http://www.w3.org/2000/svg" width="24" height="24" fill="none"><path fill="currentColor" d="M21 20.25h-1.75V4.5A2.252 2.252 0 0 0 17 2.25H7A2.252 2.252 0 0 0 4.75 4.5v15.75H3a.75.75 0 0 0 0 1.5h18a.75.75 0 0 0 0-1.5Zm-14.75 0V4.5A.75.75 0 0 1 7 3.75h10a.75.75 0 0 1 .75.75v15.75H6.25ZM16.02 12a1 1 0 0 1-1 1 1.005 1.005 0 0 1-1.005-1c0-.552.442-1 .995-1h.01a1 1 0 0 1 1 1Z"/></svg>

<svg width="24" height="24" viewBox="0 0 24 24" fill="none" xmlns="http://www.w3.org/2000/svg">
<path d="M21 20.25H19.25V4.5C19.25 3.259 18.241 2.25 17 2.25H7C5.759 2.25 4.75 3.259 4.75 4.5V20.25H3C2.586 20.25 2.25 20.586 2.25 21C2.25 21.414 2.586 21.75 3 21.75H21C21.414 21.75 21.75 21.414 21.75 21C21.75 20.586 21.414 20.25 21 20.25ZM6.25 20.25V4.5C6.25 4.086 6.586 3.75 7 3.75H17C17.414 3.75 17.75 4.086 17.75 4.5V20.25H6.25ZM16.02 12C16.02 12.552 15.572 13 15.02 13C14.468 13 14.015 12.552 14.015 12C14.015 11.448 14.457 11 15.01 11H15.02C15.572 11 16.02 11.448 16.02 12Z" fill="currentColor"/>
</svg>
